src/assets/linkedicon.svg

<svg width="28" height="28" viewBox="0 0 28 28" fill="none" xmlns="http://www.w3.org/2000/svg">
<path d="M24.5 0C25.3122 0 26.0912 0.322655 26.6655 0.896985C27.2398 1.47132 27.5625 2.25027 27.5625 3.0625V24.5C27.5625 25.3122 27.2398 26.0912 26.6655 26.6655C26.0912 27.2398 25.3122 27.5625 24.5 27.5625H3.0625C2.25027 27.5625 1.47132 27.2398 0.896985 26.6655C0.322655 26.0912 0 25.3122 0 24.5V3.0625C0 2.25027 0.322655 1.47132 0.896985 0.896985C1.47132 0.322655 2.25027 0 3.0625 0H24.5ZM23.7344 23.7344V15.6187C23.7344 14.2948 23.2084 13.0251 22.2723 12.089C21.3361 11.1528 20.0664 10.6269 18.7425 10.6269C17.4409 10.6269 15.925 11.4231 15.19 12.6175V10.9178H10.9178V23.7344H15.19V16.1853C15.19 15.0062 16.1394 14.0416 17.3184 14.0416C17.887 14.0416 18.4323 14.2674 18.8343 14.6695C19.2363 15.0715 19.4622 15.6168 19.4622 16.1853V23.7344H23.7344ZM5.94125 8.51375C6.62352 8.51375 7.27785 8.24272 7.76028 7.76028C8.24272 7.27785 8.51375 6.62352 8.51375 5.94125C8.51375 4.51719 7.36531 3.35344 5.94125 3.35344C5.25492 3.35344 4.5967 3.62608 4.11139 4.11139C3.62608 4.5967 3.35344 5.25492 3.35344 5.94125C3.35344 7.36531 4.51719 8.51375 5.94125 8.51375ZM8.06969 23.7344V10.9178H3.82812V23.7344H8.06969Z" fill="white"/>
</svg>

<svg xmlns="http://www.w3.org/2000/svg" width="28" height="28" fill="none" viewBox="0 0 28 28"><path fill="#fff" d="M24.5 0a3.06 3.06 0 0 1 3.063 3.063V24.5a3.063 3.063 0 0 1-3.063 3.063H3.063A3.063 3.063 0 0 1 0 24.5V3.063A3.063 3.063 0 0 1 3.063 0zm-.766 23.734V15.62a4.99 4.99 0 0 0-4.992-4.992c-1.301 0-2.817.796-3.552 1.99v-1.7h-4.272v12.817h4.272v-7.549c0-1.179.95-2.143 2.128-2.143a2.143 2.143 0 0 1 2.144 2.143v7.55zM5.941 8.514A2.57 2.57 0 0 0 8.514 5.94 2.58 2.58 0 0 0 5.94 3.353a2.59 2.59 0 0 0-2.588 2.588A2.58 2.58 0 0 0 5.94 8.514m2.129 15.22V10.918H3.828v12.816z"/></svg>
